svg/fluentui-system-icons/ic_fluent_teddy_24_regular.svg

<svg width="24" height="24" viewBox="0 0 24 24" fill="none" xmlns="http://www.w3.org/2000/svg">
<path d="M17.5 3.875C19.7782 3.875 21.625 5.72183 21.625 8C21.625 9.2471 21.0714 10.365 20.1971 11.1212C20.4748 11.8697 20.625 12.6694 20.625 13.5C20.625 15.89 19.382 18.0188 17.4446 19.4143C17.1624 19.6176 16.8653 19.8054 16.5551 19.9763L16.5183 19.9964C15.2037 20.7125 13.6559 21.125 12 21.125C10.3441 21.125 8.79628 20.7124 7.48166 19.9964C7.1745 19.8291 6.88004 19.6452 6.59991 19.4462L6.55539 19.4143C4.61803 18.0188 3.375 15.89 3.375 13.5C3.375 12.6694 3.52525 11.8697 3.80294 11.1212C2.92856 10.365 2.375 9.2471 2.375 8C2.375 5.72183 4.22183 3.875 6.5 3.875C8.07432 3.875 9.44244 4.75696 10.1376 6.05321C10.7375 5.9365 11.3607 5.875 12 5.875C12.6393 5.875 13.2625 5.9365 13.8624 6.05321C14.5576 4.75696 15.9257 3.875 17.5 3.875ZM13.5225 16.3968C13.4126 16.6012 13.2228 16.7712 12.99 16.8943C12.7145 17.04 12.3705 17.125 12 17.125C11.6296 17.125 11.2856 17.0401 11.0101 16.8944C10.7774 16.7713 10.5876 16.6014 10.4777 16.3971C9.33578 16.8209 8.41869 17.7081 7.95497 18.8301C9.1128 19.4892 10.5008 19.875 12 19.875C13.4993 19.875 14.8874 19.4892 16.0453 18.8299C15.7958 18.2257 15.4115 17.6816 14.9154 17.2378C14.5045 16.8703 14.0326 16.586 13.5225 16.3968ZM12 7.125C7.88428 7.125 4.625 10.0246 4.625 13.5C4.625 15.2987 5.49533 16.9402 6.9074 18.1082C7.80618 16.1978 9.74847 14.875 12 14.875C13.4399 14.875 14.7538 15.4162 15.7487 16.3061C16.3092 16.8075 16.7686 17.4196 17.0926 18.1082C18.5047 16.9402 19.375 15.2987 19.375 13.5C19.375 10.0246 16.1157 7.125 12 7.125ZM6.5 5.125C4.91218 5.125 3.625 6.41218 3.625 8C3.625 8.73272 3.90091 9.41662 4.37336 9.93541C5.34066 8.32097 6.94287 7.05326 8.88195 6.38844C8.35812 5.61513 7.47532 5.125 6.5 5.125ZM17.5 5.125C16.5254 5.125 15.6424 5.6143 15.1181 6.38845C17.0571 7.05327 18.6593 8.32095 19.6266 9.93534C20.1002 9.41558 20.375 8.73173 20.375 8C20.375 6.41218 19.0878 5.125 17.5 5.125Z" fill="#212121"/>
</svg>

<svg xmlns="http://www.w3.org/2000/svg" width="24" height="24"><path d="M17.5 3.875a4.125 4.125 0 0 1 2.697 7.246c.278.749.428 1.548.428 2.379 0 2.39-1.243 4.519-3.18 5.914-.283.204-.58.391-.89.562l-.037.02A9.439 9.439 0 0 1 12 21.125a9.44 9.44 0 0 1-4.518-1.129 8.746 8.746 0 0 1-.882-.55l-.045-.032c-1.937-1.395-3.18-3.524-3.18-5.914 0-.83.15-1.63.428-2.379a4.125 4.125 0 1 1 6.335-5.068A9.75 9.75 0 0 1 12 5.875c.64 0 1.262.061 1.862.178A4.124 4.124 0 0 1 17.5 3.875Zm-3.977 12.522c-.11.204-.3.374-.533.497-.276.146-.62.231-.99.231s-.714-.085-.99-.23a1.261 1.261 0 0 1-.532-.498 4.39 4.39 0 0 0-2.523 2.433A8.17 8.17 0 0 0 12 19.875a8.17 8.17 0 0 0 4.045-1.045 4.377 4.377 0 0 0-2.523-2.433ZM12 7.125c-4.116 0-7.375 2.9-7.375 6.375 0 1.799.87 3.44 2.282 4.608a5.626 5.626 0 0 1 10.186 0c1.412-1.168 2.282-2.81 2.282-4.608 0-3.475-3.26-6.375-7.375-6.375Zm-5.5-2a2.875 2.875 0 0 0-2.127 4.81c.968-1.614 2.57-2.882 4.509-3.547A2.876 2.876 0 0 0 6.5 5.125Zm11 0c-.975 0-1.858.49-2.382 1.263 1.94.665 3.541 1.933 4.509 3.547a2.875 2.875 0 0 0-2.127-4.81Z"/></svg>
